X: 626
T: Guanggunr kuqi
%%abc-version 2.0
%%abcx-abcm2ps-target-version 5.9.1 (29 Sep 2008)
%%abc-creator hum2abc beta
%%abcx-conversion-date 2013/10/02 07:52:30
%%abc-edited-by Helmut Schaffrath
%%humdrum-veritas 1554779230
%%humdrum-veritas-data 2327244865
%%continueall 1
%%barnumbers 0
L: 1/8
M: 2/4
K: A
e e/ e/ a f [I:setbarnb 1]| 
a cB2 | 
A> B a c | 
A cB2 | 
A> B a f | 
e f e e | 
B e B B | 
A FE2 | 
B> B B f | 
e> e B e | 
F A B3/ c/ | 
A FE2 |]  



